fonts/xidili/tmp.svg

<?xml version="1.0" encoding="UTF-8" standalone="no"?>
<svg width="500" height="850" version="1.1" id="svg2" sodipodi:docname="tmp.svg" inkscape:version="1.4.2 (ebf0e940, 2025-05-08)" xmlns:inkscape="http://www.inkscape.org/namespaces/inkscape" xmlns:sodipodi="http://sodipodi.sourceforge.net/DTD/sodipodi-0.dtd" xmlns="http://www.w3.org/2000/svg" xmlns:svg="http://www.w3.org/2000/svg">
    <defs id="defs2" />
    <sodipodi:namedview id="namedview2" pagecolor="#ffffff" bordercolor="#000000" borderopacity="0.25" inkscape:showpageshadow="2" inkscape:pageopacity="0.0" inkscape:pagecheckerboard="0" inkscape:deskcolor="#d1d1d1" inkscape:zoom="0.31652174" inkscape:cx="259.06593" inkscape:cy="426.51099" inkscape:window-width="1080" inkscape:window-height="675" inkscape:window-x="0" inkscape:window-y="25" inkscape:window-maximized="0" inkscape:current-layer="svg2" />
    <path id="path1" d="M 108.58008 258.57812 L 90.900391 265.90039 L 83.578125 283.57812 L 24.998047 425 L 83.578125 566.42188 L 90.900391 584.09961 L 108.57812 591.42188 L 126.25586 584.09961 L 133.57812 566.42188 L 126.25586 548.74414 L 126.25586 548.74219 L 75 425 L 126.25781 301.25586 L 133.58008 283.57812 L 126.25781 265.90039 L 108.58008 258.57812 z M 391.42188 258.57812 L 373.74414 265.90039 L 366.42188 283.57812 L 373.74414 301.25586 L 373.74414 301.25781 L 425 425 L 373.74219 548.74414 L 366.41992 566.42188 L 373.74219 584.09961 L 391.41992 591.42188 L 409.09961 584.09961 L 416.42188 566.42188 L 475.00195 425 L 416.42188 283.57812 L 409.09961 265.90039 L 391.42188 258.57812 z " />
</svg>

<svg width="500" height="850" xmlns="http://www.w3.org/2000/svg">
    <path
        d="m90.901 584.099 17.678 7.322 17.677-7.322 7.323-17.678-7.323-17.677L75 425l51.257-123.744L250 250l123.744 51.257L425 425l-51.257 123.744-7.323 17.677 7.323 17.678 17.677 7.322L409.1 584.1l7.322-17.678L475.001 425l-65.902-159.099L250 199.999 90.901 265.901 24.999 425l58.58 141.421z" />
    <path
        d="m409.099 265.901-17.678-7.322-17.677 7.322-7.323 17.678 7.323 17.677L425 425l-51.257 123.744L250 600l-123.744-51.257L75 425l51.257-123.744 7.323-17.677-7.323-17.678-17.677-7.322L90.9 265.9l-7.322 17.678L24.999 425l65.902 159.099L250 650.001l159.099-65.902L475.001 425l-58.58-141.421z" />
</svg>
